icons/1_Primary/Intuit.svg

<svg xmlns="http://www.w3.org/2000/svg" viewBox="0 0 1024 1024">
   <circle cx="512" cy="512" r="512" style="fill:#0077c5"/>
   <path d="M390.5 486.8h37v102.9h32.9V486.8h36.9v-29.2H390.5v29.2zm218.3 43.4c0 17.6-9.9 35.8-30.7 35.8-21.1 0-24.7-19.5-24.7-35.2v-73.1h-32.9v82.5c0 27 14.3 53.3 48.6 53.3 19.5 0 35.1-11.8 40.9-25h.5v21.2h31.3v-132h-33v72.5zm66.6 59.5h33v-132h-33v132zM444 440.3c5.3 0 10.4-2.1 14.1-5.8 3.7-3.7 5.8-8.8 5.8-14.1 0-5.3-2.1-10.4-5.8-14.1s-8.8-5.8-14.1-5.8c-2.6 0-5.2.5-7.6 1.5-2.4 1-4.6 2.5-6.5 4.3-1.8 1.9-3.3 4.1-4.3 6.5-1 2.4-1.5 5-1.5 7.6 0 11 8.9 19.9 19.9 19.9zm340.9 0c2.6 0 5.2-.5 7.6-1.5 2.4-1 4.6-2.5 6.5-4.3 1.9-1.9 3.3-4.1 4.3-6.5 1-2.4 1.5-5 1.5-7.6 0-3.9-1.2-7.8-3.4-11.1s-5.3-5.8-8.9-7.3c-3.6-1.5-7.6-1.9-11.5-1.1-3.9.8-7.4 2.7-10.2 5.5-2.8 2.8-4.7 6.3-5.4 10.2-.8 3.9-.4 7.9 1.1 11.5 1.5 3.6 4.1 6.7 7.3 8.9 3.3 2.2 7.2 3.3 11.1 3.3zm-53.4 17.3v29.3h37v102.9h32.9v-103h37v-29.2H731.5zM185.7 589.7h33v-132h-33v132zm139.5-135.9c-19.5 0-35.1 11.8-40.9 25h-.5v-21.2h-31.3v132h32.9V517c0-17.6 9.9-35.8 30.8-35.8 21.1 0 24.7 19.6 24.7 35.2v73.2h33v-82.5c-.1-26.9-14.4-53.3-48.7-53.3z" style="fill:#fff"/>
</svg>

<svg width="1024" height="1024" viewBox="0 0 1024 1024" fill="none" xmlns="http://www.w3.org/2000/svg">
<g clip-path="url(#clip0_2_2526)">
<path d="M512 1024C794.77 1024 1024 794.77 1024 512C1024 229.23 794.77 0 512 0C229.23 0 0 229.23 0 512C0 794.77 229.23 1024 512 1024Z" fill="#9ABEFF"/>
<path d="M390.5 486.8H427.5V589.7H460.4V486.8H497.3V457.6H390.5V486.8ZM608.8 530.2C608.8 547.8 598.9 566 578.1 566C557 566 553.4 546.5 553.4 530.8V457.7H520.5V540.2C520.5 567.2 534.8 593.5 569.1 593.5C588.6 593.5 604.2 581.7 610 568.5H610.5V589.7H641.8V457.7H608.8V530.2ZM675.4 589.7H708.4V457.7H675.4V589.7ZM444 440.3C449.3 440.3 454.4 438.2 458.1 434.5C461.8 430.8 463.9 425.7 463.9 420.4C463.9 415.1 461.8 410 458.1 406.3C454.4 402.6 449.3 400.5 444 400.5C441.4 400.5 438.8 401 436.4 402C434 403 431.8 404.5 429.9 406.3C428.1 408.2 426.6 410.4 425.6 412.8C424.6 415.2 424.1 417.8 424.1 420.4C424.1 431.4 433 440.3 444 440.3ZM784.9 440.3C787.5 440.3 790.1 439.8 792.5 438.8C794.9 437.8 797.1 436.3 799 434.5C800.9 432.6 802.3 430.4 803.3 428C804.3 425.6 804.8 423 804.8 420.4C804.8 416.5 803.6 412.6 801.4 409.3C799.2 406 796.1 403.5 792.5 402C788.9 400.5 784.9 400.1 781 400.9C777.1 401.7 773.6 403.6 770.8 406.4C768 409.2 766.1 412.7 765.4 416.6C764.6 420.5 765 424.5 766.5 428.1C768 431.7 770.6 434.8 773.8 437C777.1 439.2 781 440.3 784.9 440.3ZM731.5 457.6V486.9H768.5V589.8H801.4V486.8H838.4V457.6H731.5ZM185.7 589.7H218.7V457.7H185.7V589.7ZM325.2 453.8C305.7 453.8 290.1 465.6 284.3 478.8H283.8V457.6H252.5V589.6H285.4V517C285.4 499.4 295.3 481.2 316.2 481.2C337.3 481.2 340.9 500.8 340.9 516.4V589.6H373.9V507.1C373.8 480.2 359.5 453.8 325.2 453.8Z" fill="white"/>
</g>
<defs>
<clipPath id="clip0_2_2526">
<rect width="1024" height="1024" fill="white"/>
</clipPath>
</defs>
</svg>
